X:1
T:Title
%%score { ( 1 4 ) | ( 2 3 ) }
L:1/8
M:4/4
K:G
V:1 treble nm="Grand Piano"
V:4 treble 
V:2 bass 
V:3 bass 
V:1
 z4 z2[Q:1/4=100] D2 | [B,D]3 [B,G] [CA]G[Ec]G | [DB]6 B2 | [DB]3 [CA] [CE]2 [CF]2 | %4
[M:3/4] [CA]3 [B,G] [B,D]2 |[M:1/4] G2 |[M:4/4] [EG]3 [^DF] [EG]A[EG]E | [B,D]2 G2 [DB]2 [Ec]2 | %8
 [DB]3 G [CA]3 [B,G] |[M:3/4] [B,G]6 |[M:1/4] B2 |[M:4/4] d>e d4 B2 | [Ec]>[^DG] [=DB]4 [DGB]2 | %13
 [^CGB]3 [CGA] [CGA][A,CE][CGB][CGA] |[M:3/4] A2- [GA-][EA-] [DA]2 |[M:1/4] D2 | %16
[M:4/4] D3 G AG[Ec][^DG] | [DB]2 [Dd]2 [=Fd]2 [Ec]2 | [DB]3 [B,DG] [CDA]3 [B,DG] | %19
[M:3/4] [B,DG]6 |] %20
V:2
 z4 z2 B,2 | G,,D,G,D, z B, z ^D | G,,D,G,D, z2 D2 | D,,D,F,D, F,2 D,2 |[M:3/4] G,,D, G,D, G,2 | %5
[M:1/4] =F2 |[M:4/4] C,E,G,E, z F z C | z2 B,2 G,2 C,2 | D,8 |[M:3/4] [G,,D,]6 | %10
[M:1/4][K:treble] [G,DG]2 |[M:4/4] [G,B,G]>[G,CG] [G,B,G]4 [G,=F]2 | [C,G,]>[C,G,] [G,,G,]4 G,,2 | %13
 A,,3 A,, A,,A,,A,,A,, |[M:3/4] D,2 [E,^C][E,C] [F,=C]2 |[M:1/4] CA, | %16
[M:4/4] [G,B,]3 [G,B,] [G,C][G,B,][C,G,][C,G,] | [G,,G,]2 [A,,F,]2 [B,,G,]2 [C,G,]2 | %18
 [D,G,]3 D, D,3 G,, |[M:3/4] G,,6 |] %20
V:3
 x8 | z4 G,,2 G,2 | z4 G,,4 | x8 |[M:3/4] x6 |[M:1/4] x2 |[M:4/4] z4 C,2 [C,G,]2 | G,,4 z4 | %8
 z2 z B, D,,4 |[M:3/4] x6 |[M:1/4][K:treble] x2 |[M:4/4] x8 | x8 | x8 |[M:3/4] x6 |[M:1/4] F,2 | %16
[M:4/4] x8 | x8 | x8 |[M:3/4] x6 |] %20
V:4
 x8 | x8 | x8 | x8 |[M:3/4] x6 |[M:1/4] x2 |[M:4/4] x8 | x8 | x8 |[M:3/4] x6 |[M:1/4] x2 | %11
[M:4/4] x8 | x8 | x8 |[M:3/4] [DF]2 z2 z2 |[M:1/4] z C |[M:4/4] x8 | x8 | x8 |[M:3/4] x6 |] %20

